<?xml version="1.0" encoding="UTF-8"?>
<map version="1.10" tiledversion="1.12.2" orientation="orthogonal" renderorder="left-down" width="30" height="20" tilewidth="32" tileheight="32" infinite="1" nextlayerid="2" nextobjectid="1">
 <tileset firstgid="1" name="tileset x1" tilewidth="32" tileheight="32" tilecount="851" columns="37">
  <image source="tileset x1.png" width="1184" height="736"/>
  <tile id="2">
   <objectgroup draworder="index" id="2">
    <object id="1" x="0" y="0" width="32" height="32"/>
    <object id="2" template="Square.tx" x="0" y="0"/>
   </objectgroup>
  </tile>
  <tile id="3">
   <objectgroup draworder="index" id="2">
    <object id="1" x="0" y="0" width="32" height="32"/>
   </objectgroup>
  </tile>
  <tile id="336">
   <objectgroup draworder="index" id="2">
    <object id="1" x="0" y="8" width="8" height="24"/>
   </objectgroup>
  </tile>
  <tile id="372">
   <objectgroup draworder="index" id="2">
    <object id="1" x="0" y="12" width="32" height="20"/>
   </objectgroup>
  </tile>
  <tile id="373">
   <objectgroup draworder="index" id="2">
    <object id="1" x="0" y="12" width="32" height="20"/>
   </objectgroup>
  </tile>
  <tile id="374">
   <objectgroup draworder="index" id="2">
    <object id="1" x="0" y="12" width="32" height="20"/>
   </objectgroup>
  </tile>
  <tile id="375">
   <objectgroup draworder="index" id="2">
    <object id="1" x="0" y="12" width="32" height="20"/>
   </objectgroup>
  </tile>
  <tile id="376">
   <objectgroup draworder="index" id="2">
    <object id="1" x="0" y="12" width="32" height="20"/>
   </objectgroup>
  </tile>
  <tile id="377">
   <objectgroup draworder="index" id="2">
    <object id="1" x="0" y="12" width="32" height="20"/>
   </objectgroup>
  </tile>
  <tile id="378">
   <objectgroup draworder="index" id="2">
    <object id="1" x="0" y="12" width="32" height="20"/>
   </objectgroup>
  </tile>
 </tileset>
 <layer id="1" name="Tile Layer 1" width="30" height="20">
  <data encoding="csv">
   <chunk x="-16" y="-16" width="16" height="16">
0,0,0,0,0,0,0,0,0,0,0,0,0,0,0,0,
0,0,0,0,0,0,0,0,0,0,0,0,0,0,0,0,
0,0,0,0,0,0,0,0,0,0,0,0,0,0,0,0,
0,0,0,0,0,0,0,0,0,0,0,0,0,0,0,0,
0,0,0,0,0,0,0,0,0,0,0,0,0,0,0,0,
0,0,0,0,0,0,0,0,0,0,0,0,0,0,0,0,
0,0,0,0,0,0,0,0,0,0,0,0,0,0,0,0,
0,0,0,0,0,0,0,0,0,0,0,0,0,0,0,0,
0,0,0,0,0,0,0,0,0,0,0,0,0,0,0,0,
0,0,0,0,0,0,0,0,0,0,0,0,0,0,0,0,
0,0,0,0,0,0,0,0,0,0,0,0,0,0,0,0,
0,0,0,0,0,0,0,0,0,0,0,0,0,0,0,0,
0,0,0,0,0,0,0,0,0,0,0,0,0,0,0,0,
0,0,0,0,0,0,0,0,0,0,0,0,0,342,6,376,
0,0,0,0,0,0,0,0,0,0,0,0,0,84,72,72,
0,0,0,0,0,0,0,0,0,0,0,0,0,84,72,72
</chunk>
   <chunk x="0" y="-16" width="16" height="16">
0,0,0,0,0,0,0,0,0,0,0,0,0,0,0,0,
0,0,0,0,0,0,0,0,0,0,0,0,0,0,0,0,
0,0,0,0,0,0,0,0,0,0,0,0,0,0,0,0,
0,0,0,0,0,0,0,0,0,0,0,0,0,0,0,0,
0,0,0,0,0,0,0,0,0,0,0,0,0,0,0,0,
0,0,0,0,0,0,0,0,0,0,0,0,0,0,0,0,
0,0,0,0,0,0,0,0,0,0,0,0,0,0,0,0,
0,0,0,0,0,0,0,0,0,0,0,0,0,0,0,0,
0,0,0,0,0,0,0,0,0,0,0,0,0,0,0,0,
0,0,0,0,0,0,0,0,0,0,0,0,0,0,0,0,
0,0,0,0,0,0,0,0,0,0,0,0,0,0,0,0,
0,0,0,0,0,0,0,0,0,0,0,0,0,0,0,0,
0,0,0,0,0,0,0,0,0,0,0,0,0,0,0,0,
376,376,376,376,376,376,376,0,0,0,0,0,0,0,0,0,
72,72,72,72,72,72,70,0,0,0,0,0,0,0,0,0,
72,72,72,72,72,72,70,0,0,0,0,0,0,0,0,0
</chunk>
   <chunk x="-16" y="0" width="16" height="16">
0,0,0,0,0,0,0,0,0,0,0,0,0,84,72,72,
0,0,0,0,0,0,0,0,0,0,0,0,0,84,72,72,
0,0,0,0,0,0,0,0,0,0,0,0,0,84,72,72,
0,0,0,0,0,0,0,0,0,0,0,0,0,46,6,6,
0,0,0,0,0,0,0,0,0,0,0,0,0,0,0,0,
0,0,0,0,0,0,0,0,0,0,0,0,0,0,0,0,
0,0,0,0,0,0,0,0,0,0,0,0,0,0,0,0,
0,0,0,0,0,0,0,0,0,0,0,0,0,0,0,0,
0,0,0,0,0,0,0,0,0,0,0,0,0,0,0,0,
0,0,0,0,0,0,0,0,0,0,0,0,0,0,0,0,
0,0,0,0,0,0,0,0,0,0,0,0,0,0,0,0,
0,0,0,0,0,0,0,0,0,0,0,0,0,0,0,0,
0,0,0,0,0,0,0,0,0,0,0,0,0,0,0,0,
0,0,0,0,0,0,0,0,0,0,0,0,0,0,0,0,
0,0,0,0,0,0,0,0,0,0,0,0,0,0,0,0,
0,0,0,0,0,0,0,0,0,0,0,0,0,0,0,0
</chunk>
   <chunk x="0" y="0" width="16" height="16">
72,72,72,72,72,72,70,0,0,0,0,0,0,0,0,0,
72,72,72,72,72,72,70,0,0,0,0,0,0,0,0,0,
72,72,72,72,72,72,70,0,0,0,0,0,0,0,0,0,
6,6,6,6,6,6,6,0,0,0,0,0,0,0,0,0,
0,0,0,0,0,0,0,0,0,0,0,0,0,0,0,0,
0,0,0,0,0,0,0,0,0,0,0,0,0,0,0,0,
0,0,0,0,0,0,0,0,0,0,0,0,0,0,0,0,
0,0,0,0,0,0,0,0,0,0,0,0,0,0,0,0,
0,0,0,0,0,0,0,0,0,0,0,0,0,0,0,0,
0,0,0,0,0,0,0,0,0,0,0,0,0,0,0,0,
0,0,0,0,0,0,0,0,0,0,0,0,0,0,0,0,
0,0,0,0,0,0,0,0,0,0,0,0,0,0,0,0,
0,0,0,0,0,0,0,0,0,0,0,0,0,0,0,0,
0,0,0,0,0,0,0,0,0,0,0,0,0,0,0,0,
0,0,0,0,0,0,0,0,0,0,0,0,0,0,0,0,
0,0,0,0,0,0,0,0,0,0,0,0,0,0,0,0
</chunk>
  </data>
 </layer>
</map>
